X: 20982
T: Larry Grogan
%R: jig
B: James Oswald "The Caledonian Pocket Companion" v.2 p.98 #2
Z: 2019 John Chambers <jc:trillian.mit.edu>
M: 6/8
L: 1/8
K: G
c |"_Lively"\
BGB BGB | AFA ABc | (B/c/d)B cAF | GGG GG :|\
|: e |\
=f>gf edc | Bcd dBG| =f>gf efg | AAA AAe |
=f>gf edc | Bcd dBG | (B/c/d)B cAF | GGG GG :|\
|: g |\
BBg BBg | AAg AAg | BBg AAg | GGG GG :|
|: e |\
=ffa eeg | dec dBG | =fed egB | aAA AAe |\
=f3 e3 | dec dBG | (B/c/d)B cAF | GGG GG ::


